X: 1
T: Maoz tsur   [F]
T: Rock of Ages
M: 2/2
L: 1/8
Z: 2007 John Chambers <jc@trillian.mit.edu>
S: printed MS of unknown origin, labelled "9." and "Chanukah"
S: http://judaism.about.com/gi/dynamic/offsite.htm?zi=1/XJ&sdn=judaism&cdn=religion&tm=8&f=10&tt=2&bt=1&bts=0&zu=http%3A//www.chazzanut.com/englander/englander-21.html
K: F
|: "F"F2C2 F2"Bb"B2 | "F"A2"C"G2 "F"F4 |\
"F"c2"Bb"d2 "Gm"G2B2 | "C"A2G2 "F"F4 :|\
"F"c2c2 "Bb"d2"C"e2 | "F"f4 c4 |\
"F"f2"C"e2 "Bm"d2"F"c2 |
"Gm"cBAB "C"G4 |: "F"A3B c4 |\
"Gm"G3A "C"B4 | "F"A2"A"G2 "Dm"F2"Bb"B2 |\
[1 "F"A2G2 F4 :|[2 "F"A4 "C"G3F | "F"F8 |]
